app/dist/common/images/shenzhen-fastprint.svg

<svg height="18" viewBox="0 0 18 18" width="18" xmlns="http://www.w3.org/2000/svg"><path d="m0 0h18v18h-18z" fill="#f0f3fa"/><path d="m12.94 5.35.19-.35h-7.88l-2.25 7.3h.56l2.25-6.95zm2.06 3.13c0 1.34-1.85 2.43-4.13 2.43-.56 0-1.1-.06-1.6-.19l-.63 2.28h-3.39l1.5-4.7c.19-.87 1.85-2.26 4.13-2.26 2.27 0 4.12 1.1 4.12 2.44z" fill="#009140"/><path d="m6.88 13 1.12-3h2.5l.5-1h-2.5l.5-1h3l.5-1h-4.7c-.59.43-.97.92-1.05 1.3l-1.5 4.7z" fill="#6ea385"/></svg>

<!-- by TradingView --><svg width="18" height="18" viewBox="0 0 18 18" xmlns="http://www.w3.org/2000/svg"><path fill="#F0F3FA" d="M0 0h18v18H0z"/><path d="m12.94 5.35.19-.35H5.25L3 12.3h.56l2.25-6.95h7.13ZM15 8.48c0 1.34-1.85 2.43-4.13 2.43-.56 0-1.1-.06-1.6-.19L8.64 13H5.25l1.5-4.7c.19-.87 1.85-2.26 4.13-2.26 2.27 0 4.12 1.1 4.12 2.44Z" fill="#009140"/><path d="M6.88 13 8 10h2.5l.5-1H8.5L9 8h3l.5-1H7.8c-.59.43-.97.92-1.05 1.3L5.25 13h1.63Z" fill="#6EA385"/></svg>
